src/pos-icons/help-network-outline.svg

<svg height="24" viewBox="0 0 24 24" width="24" xmlns="http://www.w3.org/2000/svg"><path d="m15 20a1 1 0 0 0 -1-1h-1v-2h4a2 2 0 0 0 2-2v-10a2 2 0 0 0 -2-2h-10a2 2 0 0 0 -2 2v10a2 2 0 0 0 2 2h4v2h-1a1 1 0 0 0 -1 1h-7v2h7a1 1 0 0 0 1 1h4a1 1 0 0 0 1-1h7v-2zm-8-5v-10h10v10zm4.95-9c-.78 0-1.4.18-1.88.5-.46.39-.69.9-.68 1.6l.01.03h1.71c.01-.27.09-.48.25-.63.14-.12.36-.19.59-.19.27 0 .5.09.66.25.16.17.24.4.24.66 0 .28-.07.53-.21.73-.14.21-.31.38-.54.55-.45.28-.76.55-.93.79-.17.21-.28.6-.28 1.04h1.78c0-.27.03-.49.11-.65.08-.18.22-.32.46-.47.4-.21.73-.47.98-.82.28-.36.4-.72.4-1.17 0-.67-.24-1.22-.72-1.61-.48-.41-1.13-.61-1.95-.61m-1.06 6.22v1.78h1.78v-1.78z"/></svg>

<?xml version="1.0" encoding="UTF-8"?><!DOCTYPE svg PUBLIC "-//W3C//DTD SVG 1.1//EN" "http://www.w3.org/Graphics/SVG/1.1/DTD/svg11.dtd"><svg xmlns="http://www.w3.org/2000/svg" xmlns:xlink="http://www.w3.org/1999/xlink" version="1.1" id="mdi-help-network-outline" width="24" height="24" viewBox="0 0 24 24"><path d="M15,20A1,1 0 0,0 14,19H13V17H17A2,2 0 0,0 19,15V5A2,2 0 0,0 17,3H7A2,2 0 0,0 5,5V15A2,2 0 0,0 7,17H11V19H10A1,1 0 0,0 9,20H2V22H9A1,1 0 0,0 10,23H14A1,1 0 0,0 15,22H22V20H15M7,15V5H17V15H7M11.95,6C11.17,6 10.55,6.18 10.07,6.5C9.61,6.89 9.38,7.4 9.39,8.1L9.4,8.13H11.11C11.12,7.86 11.2,7.65 11.36,7.5C11.5,7.38 11.72,7.31 11.95,7.31C12.22,7.31 12.45,7.4 12.61,7.56C12.77,7.73 12.85,7.96 12.85,8.22C12.85,8.5 12.78,8.75 12.64,8.95C12.5,9.16 12.33,9.33 12.1,9.5C11.65,9.78 11.34,10.05 11.17,10.29C11,10.5 10.89,10.89 10.89,11.33H12.67C12.67,11.06 12.7,10.84 12.78,10.68C12.86,10.5 13,10.36 13.24,10.21C13.64,10 13.97,9.74 14.22,9.39C14.5,9.03 14.62,8.67 14.62,8.22C14.62,7.55 14.38,7 13.9,6.61C13.42,6.2 12.77,6 11.95,6M10.89,12.22V14H12.67V12.22H10.89Z" /></svg>
